X:1
T:Thanksgiving (Bassford), 77.77.77 refrain
T:Thanksgiving (Bassford), 77.77.77 refrain
T:William Kipp Bassford, ca. 1886
T:Public Domain Courtesy of the Cyber Hymnal™
C:William Kipp Bassford, ca. 1886
Z:Public Domain
Z:Courtesy of the Cyber Hymnal™
%%score ( 1 2 ) ( 3 4 )
L:1/8
M:4/4
K:Bb
V:1 treble 
V:2 treble 
V:3 bass 
V:4 bass 
V:1
 [DF]2 [DB]2 [DB]2 [DB]2 | [EB]2 [EA]2 [EA]4 | [EA]2 [EG]2 [EA]2 [EG]2 | [EG]3 [DF] [DF]4 | %4
 [DF]2 [DB]2 [DB]2 [DB]2 | [FB]2 [FA]2 [FA]4 | [Fc]2 [=EA]2 [DF]2 (cB) | [FA]2 [=EG]2 F4 | %8
 [DG]2 [DG]2 [Gc]2 [FB]2 | [FB]3 [FA] [FA]4 | [DB]2 [DB]2 [Fd]2 [Gc]2 | [EB]3 [EA] [EA]4 || %12
"^Refrain" [FB]4 F3 F | [EA]4 [EG]4 | [=Ec]4 [EG]3 [EG] | [EB]4 [EA]4 | [FB]4 [Fd]2 [^Fd]2 | %17
 [Gd]4 [EG]2 [Gc]2 | [FB]4 [EA]4 | [DB]8 |] %20
V:2
 x8 | x8 | x8 | x8 | x8 | x8 | x6 G2 | x4 F4 | x8 | x8 | x8 | x8 || x4 F3 F | x8 | x8 | x8 | x8 | %17
 x8 | x8 | x8 |] %20
V:3
 [B,,F,]2 [B,,F,]2 [B,,F,]2 [B,,F,]2 | [C,F,]2 [C,F,]2 [C,F,]4 | [F,C]2 [F,B,]2 [F,C]2 [F,B,]2 | %3
 [B,,B,]3 [B,,B,] [B,,B,]4 | [B,,B,]2 [B,,F,]2 [B,,F,]2 [B,,F,]2 | [C,F,]2 [C,D]2 [C,C]4 | %6
 [A,,C]2 [C,C]2 [D,A,]2 [B,,D]2 | [C,C]2 [C,B,]2 [F,A,]4 | [F,B,]2 [F,B,]2 [F,E]2 [F,D]2 | %9
 [F,D]3 [F,C] [F,C]4 | [G,B,]2 [G,B,]2 [D,B,]2 [E,B,]2 | [_G,C]3 [F,C] [F,C]4 || %12
 [D,B,]4 [D,B,]3 [D,B,] | [E,B,]4 [E,B,]4 | [C,B,]4 [C,B,]3 [C,B,] | [F,C]4 [F,C]4 | %16
 [D,B,]4 [D,B,]2 [D,B,]2 | [E,B,]4 [E,B,]2 [C,E]2 | D4 C4 | [B,,B,]8 |] %20
V:4
 x8 | x8 | x8 | x8 | x8 | x8 | x8 | x8 | x8 | x8 | x8 | x8 || x8 | x8 | x8 | x8 | x8 | x8 | F,8 | %19
 x8 |] %20

